symbols/web/comment_bank/materialsymbolsrounded/comment_bank_wght200_40px.svg

<svg xmlns="http://www.w3.org/2000/svg" height="40" width="40"><path d="m6.417 29.25 2.291-2.333h23.875q.417 0 .709-.292.291-.292.291-.708v-18.5q0-.417-.291-.709-.292-.291-.709-.291h-3.416v9q0 .375-.313.562-.312.188-.646.021l-2.291-1.333L23.583 16q-.375.167-.666-.021-.292-.187-.292-.562v-9H7.417q-.417 0-.709.291-.291.292-.291.709ZM5 30.542V7.417q0-1 .708-1.709Q6.417 5 7.417 5h25.166q1 0 1.709.708.708.709.708 1.709v18.5q0 1-.708 1.708-.709.708-1.709.708H10.125l-3.042 3.042q-.583.583-1.333.271Q5 31.333 5 30.542Zm1.417-3.625v-20.5 1Z"/></svg>

<svg xmlns="http://www.w3.org/2000/svg" height="40" width="40"><path d="M6.417 29.25 8.708 26.917H32.583Q33 26.917 33.292 26.625Q33.583 26.333 33.583 25.917V7.417Q33.583 7 33.292 6.708Q33 6.417 32.583 6.417H29.167V15.417Q29.167 15.792 28.854 15.979Q28.542 16.167 28.208 16L25.917 14.667L23.583 16Q23.208 16.167 22.917 15.979Q22.625 15.792 22.625 15.417V6.417H7.417Q7 6.417 6.708 6.708Q6.417 7 6.417 7.417ZM5 30.542V7.417Q5 6.417 5.708 5.708Q6.417 5 7.417 5H32.583Q33.583 5 34.292 5.708Q35 6.417 35 7.417V25.917Q35 26.917 34.292 27.625Q33.583 28.333 32.583 28.333H10.125L7.083 31.375Q6.5 31.958 5.75 31.646Q5 31.333 5 30.542ZM6.417 26.917Q6.417 26.917 6.417 26.625Q6.417 26.333 6.417 25.917V7.417Q6.417 7 6.417 6.708Q6.417 6.417 6.417 6.417Q6.417 6.417 6.417 6.708Q6.417 7 6.417 7.417Z"/></svg>
